X:1
T:A Sinner Saved by Grace
T:A Sinner Saved by Grace
T:Charles Hutchinson Gabriel
T:Maggie E. Gregory, 1907
T:Public Domain Courtesy of the Cyber Hymnal™
T:Public Domain Courtesy of the Cyber Hymnal™
C:Charles Hutchinson Gabriel
Z:Public Domain
Z:Courtesy of the Cyber Hymnal™
%%score ( 1 2 ) ( 3 4 )
L:1/8
Q:1/4=105
M:4/4
K:D
V:1 treble 
V:2 treble 
V:3 bass 
V:4 bass 
V:1
 [DF]2 [DF][DE] D[CE][DF][FA] | [Fd]6 [Ac]2 | [GB]3 [G^A] [GB][Bd][=Ac][GB] | [FA]6 [DF]2 | %4
w: 1.~Weak and un- wor- thy tho’ I|be, Yet|Christ, the Sav- ior, died for|me; And|
w: 2.~Wea- ry of sin, to Him I|came, And|asked for par- don in His|name; He|
w: 3.~Tho’ fierce temp- ta- tions press me|sore, I’ll|leave my Sav- ior ne- ver|more; In|
 [EG]3 [DF] [CE][DF][EG][FA] | [Ec]6 [FB]2 | [EA]3 E [EA][Ec]!fermata![Ec][DB] | [CA]6 || %8
w: I shall see His bless- èd|face, For|I’m a sin- ner saved by|grace.|
w: heard, and now in His em-|brace I|live, a sin- ner saved by|grace.|
w: Heav’n He has pre- pared a|place For|me, a sin- ner saved by|grace.|
"^Refrain" [GA]2 | d4- ddcB | [FA][DF] A4 A2 | [GA][CE] A4 ([GB][GA]) | [FA][DF] A4 [GA]2 | %13
w: In|glo- * ry I shall|see His face, His|bless- èd face, His *|bless- èd face; In|
w: |||||
w: |||||
 d4- dded | [Gd][GB] d2- !fermata![Gd][Gd][^Ec][EB] | [FA] [Fd]3 [DF]2 [CE]2 | D6 z2 |] %17
w: glo- * ry I shall|see His face, For I’m a sin-|* ner saved by|grace.|
w: ||||
w: ||||
V:2
 x4 D x3 | x8 | x8 | x8 | x8 | x8 | x3 E x4 | x6 || x2 | (FFFF F2) G2 | x2 (FF F2) (DD) | %11
 x2 (GG G2) x2 | x2 (FF F2) x2 | (FFFF F2) A2 | x2 GG x4 | x8 | D6 x2 |] %17
V:3
 [D,A,]2 [D,A,][D,G,] [D,F,][A,,A,][D,A,][D,D] | [D,A,]6 [F,D]2 | %2
w: ~ ~ ~ ~ ~ ~ ~|~ ~|
 [G,D]3 [G,C] [G,D][G,D][G,D][G,D] | [D,D]6 [D,A,]2 | %4
w: ~ ~ ~ ~ ~ ~|~ ~|
 [A,,A,]3 [A,,A,] [A,,A,][A,,A,][A,,A,][A,,A,] | A,6 [D,D]2 | %6
w: ~ ~ ~ ~ ~ ~|~ ~|
 [E,C]3 [E,C] [E,C][E,A,]!fermata![E,^G,][E,G,] | [A,,A,]6 || [A,C]2 | %9
w: ~ ~ ~ ~ ~ ~|~|~|
 [D,A,][D,A,][D,A,][D,A,] [D,A,]2 [D,D]2 | [D,D][D,A,][D,D][D,D] [D,D]2 [F,D][F,D] | %11
w: In glo- ry I shall see|His face, His bless- èd face, I|
 [E,C]A,[A,,C][A,,C] [A,,C]2 [A,,C][A,,C] | [D,D][D,A,][D,D][D,D] [D,D]2 [A,C]2 | %13
w: shall see His bless- èd face, I|shall see His bless- èd face;|
 [D,A,][D,A,][D,A,][D,A,] [D,A,]2 [F,=C]2 | [G,B,][G,B,][G,B,][G,B,] [G,B,][G,B,][^G,B,][G,D] | %15
w: In glo- ry I shall see|His face, His bless- èd face, * *|
 [A,D] A,3 [A,,A,]2 [A,,G,]2 | [D,F,]6 z2 |] %17
w: ||
V:4
 x8 | x8 | x8 | x8 | x8 | (A,,4 C,2) x2 | x8 | x6 || x2 | x8 | x8 | x A, x6 | x8 | x8 | x8 | %15
 x A,3 x4 | x8 |] %17

